X: 2864
T: Barkley Jam
R: reel
M: 4/4
K: Amajor
FGAc B2 AB|cA A2 BAFE|FGAc B2 AB|ceec ef z E|
FGAc B2 AB|cA A2 Bcea|fecA B2 AB|cFFE F3 E|
FGAc B2 AB|cA A2 BAFE|FGAc B2 AB|ceec efaz|
FGAc B2 AB|cA A2 Bcea|fecA B2 AB|cFFE F3 e||
fafe Bcce|fafe ceBe|cA A2 ABAE|ABce fega|
fafe Bcce|fafe ceAc|AB B2 B2 AB|cA A2 ABce|
fafe Bcce|fafe ceBe|cA A2 ABAE|ABce fega|
fafe Bcce|fafe ceAc|AB B2 B2 AB|c2 ec BAFE||

